X: 230
T: 231. Die Nacht ist kommen
N: Derived from chor231.krn
C: Johann Sebastian Bach
%%abc-version 2.0
%%abcx-abcm2ps-target-version 5.9.1 (29 Sep 2008)
%%abc-creator hum2abc beta
%%abcx-conversion-date 2019/03/11 17:28:19
%%abc-edited-by Craig Stuart Sapp
%%humdrum-veritas 3066272800
%%humdrum-veritas-data 4281973809
%%
%%barnumbers 0
L: 1/4
M: C
%%staves [1 2 3 4]
V: 1 clef=treble
V: 2 clef=treble
V: 3 clef=treble-8
V: 4 clef=bass
K: C
[V:1] G [I:setbarnb 1]| 
[V:2] D | 
[V:3] B | 
[V:4] G, | 
[V:1] ABc2 | 
[V:2] DDED | 
[V:3] AGGA | 
[V:4] ^F,=F,E,^F, | 
[V:1] !fermata!B2AA | 
[V:2] !fermata!D2ED/=C/ | 
[V:3] !fermata!G2G=F/E/ | 
[V:4] !fermata!G,2^C,D,- | 
[V:1] ^GAB2 | 
[V:2] B,EFE/D/ | 
[V:3] EE/A/A^G | 
[V:4] D,C,D,E, | 
[V:1] !fermata!A2zc | 
[V:2] !fermata!C2xA | 
[V:3] !fermata!A2xe | 
[V:4] !fermata!A,,2zA, | 
[V:1] cc/B/A2 | 
[V:2] G/F/G-G/F//E// F/G/ | 
[V:3] e/d/ec/^c/ d/e/ | 
[V:4] E,C,F,/G,/F,/E,/ | 
[V:1] !fermata!d2zB | 
[V:2] !fermata!A2xG | 
[V:3] !fermata!f2xd | 
[V:4] !fermata!D,2zG,/F,/ | 
[V:1] cABA | 
[V:2] GA-A/G^F/ | 
[V:3] edd3/c/ | 
[V:4] E,^F,G,D, | 
[V:1] !fermata!G2zd | 
[V:2] !fermata!D2xG | 
[V:3] !fermata!B2xB | 
[V:4] !fermata!G,,2zG, | 
[V:1] ddc2 | 
[V:2] A/D/G-G/F/G/E/ | 
[V:3] ABc2 | 
[V:4] ^F,G,/=F,/ E,/D,/E,/C,/ | 
[V:1] !fermata!A2zc | 
[V:2] !fermata!F2xG | 
[V:3] !fermata!c2xe | 
[V:4] !fermata!F,2zE, | 
[V:1] cBc/B/A | 
[V:2] A3/G/GG | 
[V:3] dde/d/e | 
[V:4] ^F,G,C,^C, | 
[V:1] !fermata!A2zd | 
[V:2] !fermata!^F2xG- | 
[V:3] !fermata!d2xD | 
[V:4] !fermata!D,2zB,, | 
[V:1] cBA2 | 
[V:2] G/^F/GGF | 
[V:3] G/A/ B/e/ A/dc/ | 
[V:4] E,D,/C,/D,D,, | 
[V:1] !fermata!G4 |]  
[V:2] !fermata!D4 |]  
[V:3] !fermata!B4 |]  
[V:4] !fermata!G,,4 |]  



